X:181
T:2 Steirer
R:Steirer
C:traditionell
A:Bad Aussee, Salzkammergut
B:"Pfeifermusik aus Bad Ischl", Lois Blamberger, 3. Auflage, Bad Ischl 1990
S:im buch mit der Angabe: aus der Sammlung des Johann Kain
N:im buch in D, nr. 12
Z:abc transcription Simon Wascher
M:3/4
L:1/8
K:D
V:1
(dA F3) d | (cA G3) A | (cAGA cA) | (dA dfa)z |\
(dA F3) d | (cA G3) d | (cAce ac | d4) z2 :|
V:2
(AF D3) B | (AG E3) G | (AGEG AG) | (AF Adf)z |\
(AF D3) B | (AG E3) B | (AGAc eA | F4) z2 :|
V:1
(cd) e3 c | (df) d3 f | az (ce ac | d)z (fdad |\
cd e3) c | (df) d3 f | az (ce ac | d4) z2 :|
V:2
(AB) c3 A | (Fd) A3 d | cz (GA cA | A)z (dA fA |\
AB c3) A | (Fd) A3 d | cz (GA cA | F4) z2 :|
